X: 10
T: The Friar's Hill
M: 3/4
L: 1/8
B: "O'Neill's 10"
N: "Moderate" "collected by F. O'Neill"
Z: "Transcribed by Norbert Paap, norbertp@bdu.uva.nl"
K:G
D2 | D2 G2 G2 | B2 A2 G2 | ~(G2 F2 G2) | (A2 F2 D2) |\
D2 G2 G2 | {c}B2 G2 B2 | {d}c4 A2 | F4 A2 |
D2 G2 G2 | ~(B2 A2 G2) | {G}F2 G2 A2 | A2 B2 c2 |\
~(d2 c2 A2) | {B}(A2 G2 F2) | G6 | G2z2 ||
Bc | .d2 .e2 .d2 | .B2 .A2 .B2 | .c2 .B2 .c2 | (A2 B2 c2) |\
d2 e2 d2 | {c}B2 G2 B2 | A4 F2 | D4 B-c |
d2 e2 d2 | B2 A2 B2 | {d}(c2 B2 c2) | A2 B2 c2 |\
{g}f2 e2 d2 | ~c2 A2 F2 | G6 | G2z2 |:|


